src/assets/icons/plus.svg

<svg width="22" height="22" fill="none" xmlns="http://www.w3.org/2000/svg"><path fill-rule="evenodd" clip-rule="evenodd" d="M12 0h-2v10H0v2h10v10h2V12h10v-2H12V0z" fill="#517185"/></svg>

<svg width="22" height="22" viewBox="0 0 22 22" fill="none" xmlns="http://www.w3.org/2000/svg">
<path fill-rule="evenodd" clip-rule="evenodd" d="M12 0H10V10H0V12H10V22H12V12H22V10H12V0Z" fill="#517185"/>
</svg>
